SVG_Azure_All/Software As A Service.svg

<?xml version="1.0" encoding="UTF-8" standalone="no"?>
<!-- Generated by Microsoft Visio, SVG Export Software As A Service.svg Page-1 -->

<svg
   xmlns:dc="http://purl.org/dc/elements/1.1/"
   xmlns:cc="http://creativecommons.org/ns#"
   xmlns:rdf="http://www.w3.org/1999/02/22-rdf-syntax-ns#"
   xmlns:svg="http://www.w3.org/2000/svg"
   xmlns="http://www.w3.org/2000/svg"
   xmlns:sodipodi="http://sodipodi.sourceforge.net/DTD/sodipodi-0.dtd"
   xmlns:inkscape="http://www.inkscape.org/namespaces/inkscape"
   width="0.78735828in"
   height="0.63016021in"
   viewBox="0 0 56.689795 45.371699"
   xml:space="preserve"
   class="st4"
   version="1.1"
   id="svg47"
   sodipodi:docname="Software As A Service.svg"
   style="font-size:12px;overflow:visible;color-interpolation-filters:sRGB;fill:none;fill-rule:evenodd;stroke-linecap:square;stroke-miterlimit:3"
   inkscape:version="0.92.5 (2060ec1f9f, 2020-04-08)"><metadata
   id="metadata51"><rdf:RDF><cc:Work
       rdf:about=""><dc:format>image/svg+xml</dc:format><dc:type
         rdf:resource="http://purl.org/dc/dcmitype/StillImage" /></cc:Work></rdf:RDF></metadata><sodipodi:namedview
   pagecolor="#ffffff"
   bordercolor="#666666"
   borderopacity="1"
   objecttolerance="10"
   gridtolerance="10"
   guidetolerance="10"
   inkscape:pageopacity="0"
   inkscape:pageshadow="2"
   inkscape:window-width="640"
   inkscape:window-height="480"
   id="namedview49"
   showgrid="false"
   inkscape:zoom="2.1095237"
   inkscape:cx="37.795143"
   inkscape:cy="10.589289"
   inkscape:window-x="0"
   inkscape:window-y="0"
   inkscape:window-maximized="0"
   inkscape:current-layer="svg47" />
	<style
   type="text/css"
   id="style2">
	<![CDATA[
		.st1 {fill:url(#grad0-5);stroke:none;stroke-linecap:butt;stroke-width:2.67736}
		.st2 {fill:url(#grad0-9);stroke:none;stroke-linecap:butt;stroke-width:2.67736}
		.st3 {fill:#ffffff;stroke:none;stroke-linecap:butt;stroke-width:2.67736}
		.st4 {fill:none;fill-rule:evenodd;font-size:12px;overflow:visible;stroke-linecap:square;stroke-miterlimit:3}
	]]>
	</style>

	<defs
   id="Patterns_And_Gradients">
		<linearGradient
   id="grad0-5"
   x1="0"
   y1="54.382711"
   x2="46.942752"
   y2="54.382711"
   gradientTransform="scale(1.2076412,0.82806055)"
   gradientUnits="userSpaceOnUse">
			<stop
   offset="0"
   stop-color="#5ea0ef"
   stop-opacity="1"
   id="stop4" />
			<stop
   offset="0.18"
   stop-color="#559cec"
   stop-opacity="1"
   id="stop6" />
			<stop
   offset="0.47"
   stop-color="#3c91e5"
   stop-opacity="1"
   id="stop8" />
			<stop
   offset="0.84"
   stop-color="#1380da"
   stop-opacity="1"
   id="stop10" />
			<stop
   offset="1"
   stop-color="#0078d4"
   stop-opacity="1"
   id="stop12" />
		</linearGradient>
		<linearGradient
   id="grad0-9"
   x1="-1.8264844e-05"
   y1="41.041373"
   x2="24.232091"
   y2="41.041373"
   gradientTransform="scale(0.77789461,1.2855212)"
   gradientUnits="userSpaceOnUse">
			<stop
   offset="0"
   stop-color="#b3b3b3"
   stop-opacity="1"
   id="stop15" />
			<stop
   offset="0.12"
   stop-color="#adadad"
   stop-opacity="1"
   id="stop17" />
			<stop
   offset="0.64"
   stop-color="#9b9b9b"
   stop-opacity="1"
   id="stop19" />
			<stop
   offset="1"
   stop-color="#949494"
   stop-opacity="1"
   id="stop21" />
		</linearGradient>
	</defs>
	<g
   id="g45"
   transform="translate(-5.6694146,-4.5230478)">
		<title
   id="title25">Page-1</title>
		<g
   id="group1470-1"
   transform="translate(5.66929,-34.0157)">
			<title
   id="title27">Software As A Service</title>
			<g
   id="shape1471-2"
   transform="translate(0,-6.49343)">
				<title
   id="title29">path26</title>
				<path
   d="M 56.69,71.78 A 12.7467,12.3664 -180 0 0 45.61,59.9 16.0168,15.539 -180 0 0 29.1,45.04 16.484,15.9922 -180 0 0 13.35,55.4 15.216,14.762 -180 0 0 0,69.62 15.4162,14.9562 -180 0 0 15.95,83.89 h 27.26 a 4.00421,3.88474 -180 0 0 0.67,0 12.9136,12.5283 -180 0 0 12.81,-12.11 z"
   class="st1"
   id="path31"
   inkscape:connector-curvature="0"
   style="fill:url(#grad0-5);stroke:none;stroke-width:2.67736006;stroke-linecap:butt" />
			</g>
			<g
   id="shape1472-6"
   transform="translate(19.0867)">
				<title
   id="title34">path28</title>
				<path
   d="m 18.85,82.35 a 1.60168,1.5539 0 0 1 -1.63,1.56 H 1.64 A 1.60168,1.5539 0 0 1 0,82.35 V 54.32 a 1.60168,1.5539 0 0 1 1.64,-1.56 h 15.58 a 1.60168,1.5539 0 0 1 1.63,1.56 z"
   class="st2"
   id="path36"
   inkscape:connector-curvature="0"
   style="fill:url(#grad0-9);stroke:none;stroke-width:2.67736006;stroke-linecap:butt" />
			</g>
			<g
   id="shape1473-10"
   transform="translate(21.3224,-1.68339)">
				<title
   id="title39">b27878c5-7f3c-4613-bf1f-666b5e2</title>
				<path
   d="m 0,57.68 h 3.67 v 4.37 H 0 Z m 5.41,0 h 3.6 v 4.37 h -3.6 z m 5.4,0 h 3.61 v 4.37 H 10.81 Z M 0,64.68 h 3.67 v 4.37 H 0 Z m 5.41,0 h 3.6 v 4.37 h -3.6 z m 5.4,0 h 3.61 v 4.37 H 10.81 Z M 0,71.67 h 3.67 v 4.37 H 0 Z m 5.41,0 h 3.6 v 4.37 h -3.6 z m 0,6.99 h 3.6 v 5.25 h -3.6 z m 5.4,-6.99 h 3.61 v 4.37 h -3.61 z"
   class="st3"
   id="path41"
   inkscape:connector-curvature="0"
   style="fill:#ffffff;stroke:none;stroke-width:2.67736006;stroke-linecap:butt" />
			</g>
		</g>
	</g>
</svg>

<?xml version="1.0" encoding="UTF-8" standalone="no"?>
<!DOCTYPE svg PUBLIC "-//W3C//DTD SVG 1.1//EN" "http://www.w3.org/Graphics/SVG/1.1/DTD/svg11.dtd">
<!-- Generated by Microsoft Visio, SVG Export Software As A Service.svg Page-1 -->
<svg xmlns="http://www.w3.org/2000/svg" xmlns:xlink="http://www.w3.org/1999/xlink" xmlns:ev="http://www.w3.org/2001/xml-events"
		width="0.944882in" height="1.16535in" viewBox="0 0 68.0315 83.9055" xml:space="preserve" color-interpolation-filters="sRGB"
		class="st4">
	<style type="text/css">
	<![CDATA[
		.st1 {fill:url(#grad0-5);stroke:none;stroke-linecap:butt;stroke-width:2.67736}
		.st2 {fill:url(#grad0-9);stroke:none;stroke-linecap:butt;stroke-width:2.67736}
		.st3 {fill:#ffffff;stroke:none;stroke-linecap:butt;stroke-width:2.67736}
		.st4 {fill:none;fill-rule:evenodd;font-size:12px;overflow:visible;stroke-linecap:square;stroke-miterlimit:3}
	]]>
	</style>

	<defs id="Patterns_And_Gradients">
		<linearGradient id="grad0-5" x1="0" y1="0" x2="1" y2="0" gradientTransform="rotate(90 0.5 0.5)">
			<stop offset="0" stop-color="#5ea0ef" stop-opacity="1"/>
			<stop offset="0.18" stop-color="#559cec" stop-opacity="1"/>
			<stop offset="0.47" stop-color="#3c91e5" stop-opacity="1"/>
			<stop offset="0.84" stop-color="#1380da" stop-opacity="1"/>
			<stop offset="1" stop-color="#0078d4" stop-opacity="1"/>
		</linearGradient>
		<linearGradient id="grad0-9" x1="0" y1="0" x2="1" y2="0" gradientTransform="rotate(90 0.5 0.5)">
			<stop offset="0" stop-color="#b3b3b3" stop-opacity="1"/>
			<stop offset="0.12" stop-color="#adadad" stop-opacity="1"/>
			<stop offset="0.64" stop-color="#9b9b9b" stop-opacity="1"/>
			<stop offset="1" stop-color="#949494" stop-opacity="1"/>
		</linearGradient>
	</defs>
	<g>
		<title>Page-1</title>
		<g id="group1455-1" transform="translate(5.66929,-34.0157)">
			<title>Software As A Service</title>
			<g id="shape1456-2" transform="translate(0,-6.49343)">
				<title>path26</title>
				<path d="M56.69 71.78 A12.7467 12.3664 -180 0 0 45.61 59.9 A16.0168 15.539 -180 0 0 29.1 45.04 A16.484 15.9922 -180
							 0 0 13.35 55.4 A15.216 14.762 -180 0 0 0 69.62 A15.4162 14.9562 -180 0 0 15.95 83.89 L43.21 83.89 A4.00421
							 3.88474 -180 0 0 43.88 83.89 A12.9136 12.5283 -180 0 0 56.69 71.78 Z" class="st1"/>
			</g>
			<g id="shape1457-6" transform="translate(19.0867,2.41585E-13)">
				<title>path28</title>
				<path d="M18.85 82.35 A1.60168 1.5539 0 0 1 17.22 83.91 L1.64 83.91 A1.60168 1.5539 0 0 1 0 82.35 L0 54.32 A1.60168
							 1.5539 0 0 1 1.64 52.76 L17.22 52.76 A1.60168 1.5539 0 0 1 18.85 54.32 L18.85 82.35 Z" class="st2"/>
			</g>
			<g id="shape1458-10" transform="translate(21.3224,-1.68339)">
				<title>b27878c5-7f3c-4613-bf1f-666b5e2</title>
				<path d="M0 57.68 L3.67 57.68 L3.67 62.05 L0 62.05 L0 57.68 ZM5.41 57.68 L9.01 57.68 L9.01 62.05 L5.41 62.05 L5.41
							 57.68 ZM10.81 57.68 L14.42 57.68 L14.42 62.05 L10.81 62.05 L10.81 57.68 ZM0 64.68 L3.67 64.68 L3.67
							 69.05 L0 69.05 L0 64.68 ZM5.41 64.68 L9.01 64.68 L9.01 69.05 L5.41 69.05 L5.41 64.68 ZM10.81 64.68 L14.42
							 64.68 L14.42 69.05 L10.81 69.05 L10.81 64.68 ZM0 71.67 L3.67 71.67 L3.67 76.04 L0 76.04 L0 71.67 ZM5.41
							 71.67 L9.01 71.67 L9.01 76.04 L5.41 76.04 L5.41 71.67 ZM5.41 78.66 L9.01 78.66 L9.01 83.91 L5.41 83.91
							 L5.41 78.66 ZM10.81 71.67 L14.42 71.67 L14.42 76.04 L10.81 76.04 L10.81 71.67 Z" class="st3"/>
			</g>
		</g>
	</g>
</svg>
